X:1
T: The Olympic Jig
C:Bruce Shawyer
R:Jig
I:speed 180
K:A
M:6/8
L:1/16
E2|A4A2 A2B2c2|d2c2B2 G4E2|c4c2 c2d2e2|f2e2d2 B6|e4e2 e2c2A2|d2c2B2 G4E2|A2B2c2 d2c2B2|E2F2G2 A4E2|
A4A2 A2B2c2|d2c2B2 G4E2|c4c2 c2d2e2|f2e2d2 B6|e4e2 e2c2A2|d2c2B2 G4E2|A2B2c2 d2c2B2|E2F2G2 A4A2|
c4d2 e2d2e2|f2e2d2 d2c2B2|B4c2 d2c2d2|e2d2c2 c6|c4d2 e2d2e2|f2e2d2 d2c2B2|B4B2 F4G2|A6 A4A2|
c4d2 e2d2e2|f2e2d2 d2c2B2|B4c2 d2c2d2|e2d2c2 c6|c4d2 e2d2e2|f2e2d2 d2c2B2|B4B2 F4G2|A6 A4||
